X:701
T:Bottle of Punch, The
O:england
M:6/8
L:1/8
K:G
D2B AFD|EDE F2E|D2B AFD|EDE FAF|
D2B AFD|EDE FGA|B>cd AGF|EDE FDE:|
dfd cec|BdB ABc|dfd ege|f>ed cBA|
dfd cec|BdB ABc|d>cB AGF|EDE FDE|
dfd cec|BdB ABc|d>ef efg|f>ed ecA|
dfd cec|BdB ABc|def AFD|EDE FDE||


